static/fa/svgs/regular/face-grin-wide.svg

<svg xmlns="http://www.w3.org/2000/svg" viewBox="0 0 512 512"><!--! Font Awesome Free 6.1.1 by @fontawesome - https://fontawesome.com License - https://fontawesome.com/license/free (Icons: CC BY 4.0, Fonts: SIL OFL 1.1, Code: MIT License) Copyright 2022 Fonticons, Inc.--><path d="M349.5 308.4c18.7-5.3 35.9 12 24.6 28.1-23.7 38.1-67.8 62.6-118.2 62.6-50.3 0-94.4-24.5-119-62.6-10.4-16.1 6.8-33.4 25.4-28.1 29 6.7 60.5 10.4 93.6 10.4 33.1 0 64.7-3.7 93.6-10.4zM224 192c0 35.3-14.3 64-32 64s-32-28.7-32-64 14.3-64 32-64 32 28.7 32 64zm64 0c0-35.3 14.3-64 32-64s32 28.7 32 64-14.3 64-32 64-32-28.7-32-64zm224 64c0 141.4-114.6 256-256 256S0 397.4 0 256 114.6 0 256 0s256 114.6 256 256zM256 48C141.1 48 48 141.1 48 256s93.1 208 208 208 208-93.1 208-208S370.9 48 256 48z"/></svg>

<svg xmlns="http://www.w3.org/2000/svg" viewBox="0 0 512 512"><!--! Font Awesome Free 6.1.1 by @fontawesome - https://fontawesome.com License - https://fontawesome.com/license/free (Icons: CC BY 4.0, Fonts: SIL OFL 1.1, Code: MIT License) Copyright 2022 Fonticons, Inc. --><path d="M349.5 308.4C368.2 303.1 385.4 320.4 374.1 336.5C350.4 374.6 306.3 399.1 255.9 399.1C205.6 399.1 161.5 374.6 136.9 336.5C126.5 320.4 143.7 303.1 162.3 308.4C191.3 315.1 222.8 318.8 255.9 318.8C289 318.8 320.6 315.1 349.5 308.4zM224 192C224 227.3 209.7 256 192 256C174.3 256 160 227.3 160 192C160 156.7 174.3 128 192 128C209.7 128 224 156.7 224 192zM288 192C288 156.7 302.3 128 320 128C337.7 128 352 156.7 352 192C352 227.3 337.7 256 320 256C302.3 256 288 227.3 288 192zM512 256C512 397.4 397.4 512 256 512C114.6 512 0 397.4 0 256C0 114.6 114.6 0 256 0C397.4 0 512 114.6 512 256zM256 48C141.1 48 48 141.1 48 256C48 370.9 141.1 464 256 464C370.9 464 464 370.9 464 256C464 141.1 370.9 48 256 48z"/></svg>
